images/color/svg/1f524.svg

<svg id="emoji" viewBox="0 0 72 72" xmlns="http://www.w3.org/2000/svg">
  <g id="color">
    <path fill="#d0cfce" stroke="none" stroke-linejoin="round" stroke-miterlimit="10" stroke-width="2" d="M59.0349,60H12.9651 C12.4343,60,12,59.5657,12,59.0349V12.9651C12,12.4343,12.4343,12,12.9651,12h46.0698C59.5657,12,60,12.4343,60,12.9651v46.0698 C60,59.5657,59.5657,60,59.0349,60z"/>
  </g>
  <g id="hair"/>
  <g id="skin"/>
  <g id="skin-shadow"/>
  <g id="line">
    <path fill="none" stroke="#000000" stroke-linejoin="round" stroke-miterlimit="10" stroke-width="2" d="M59.0349,60H12.9651 C12.4343,60,12,59.5657,12,59.0349V12.9651C12,12.4343,12.4343,12,12.9651,12h46.0698C59.5657,12,60,12.4343,60,12.9651v46.0698 C60,59.5657,59.5657,60,59.0349,60z"/>
    <path fill="none" stroke="#000000" stroke-linecap="round" stroke-linejoin="round" stroke-miterlimit="10" stroke-width="2" d="M47.5663,40.8709C47.125,41.2623,46.5443,41.5,45.908,41.5l0,0c-1.3807,0-2.5-1.1193-2.5-2.5v-2v2v-2c0-1.3807,1.1193-2.5,2.5-2.5 l0,0c0.6363,0,1.217,0.2377,1.6583,0.6292"/>
    <path fill="none" stroke="#000000" stroke-linecap="round" stroke-linejoin="round" stroke-miterlimit="10" stroke-width="2" d="M36.3633,41.75L36.3633,41.75c1.3807,0,2.5-1.1193,2.5-2.5v-2c0-1.3807-1.1193-2.5-2.5-2.5l0,0c-1.3807,0-2.5,1.1193-2.5,2.5v2 C33.8633,40.6307,34.9826,41.75,36.3633,41.75z"/>
    <line x1="33.8633" x2="33.8633" y1="38.7801" y2="29.7801" fill="none" stroke="#000000" stroke-linecap="round" stroke-linejoin="round" stroke-miterlimit="10" stroke-width="2"/>
    <path fill="none" stroke="#000000" stroke-linecap="round" stroke-linejoin="round" stroke-miterlimit="10" stroke-width="2" d="M23.4337,39.9583L23.4337,39.9583c0,0.9895,0.8523,1.7917,1.9036,1.7917h1.5229c1.0513,0,1.9036-0.8022,1.9036-1.7917l0,0 c0-0.9895-0.8523-1.7917-1.9036-1.7917h-1.5229C24.286,38.1667,23.4337,38.9688,23.4337,39.9583z"/>
    <path fill="none" stroke="#000000" stroke-linecap="round" stroke-linejoin="round" stroke-miterlimit="10" stroke-width="2" d="M23.8369,35.5208c0.4185-0.5629,1.1625-0.9374,2.0105-0.9374h0.8291c1.3083,0,2.3689,0.8913,2.3689,1.9907l0,0V41.75"/>
  </g>
</svg>

<svg viewBox="0 0 72 72" xmlns="http://www.w3.org/2000/svg"><path fill="#d0cfce" d="M59.035 60h-46.07a.968.968 0 0 1-.965-.965v-46.07c0-.53.434-.965.965-.965h46.07c.53 0 .965.434.965.965v46.07c0 .53-.434.965-.965.965z"/><g fill="none" stroke="#000" stroke-linejoin="round" stroke-miterlimit="10" stroke-width="2"><path d="M59.035 60h-46.07a.968.968 0 0 1-.965-.965v-46.07c0-.53.434-.965.965-.965h46.07c.53 0 .965.434.965.965v46.07c0 .53-.434.965-.965.965z"/><path stroke-linecap="round" d="M47.566 40.87a2.49 2.49 0 0 1-1.658.63h0a2.5 2.5 0 0 1-2.5-2.5v-2 2-2a2.5 2.5 0 0 1 2.5-2.5h0a2.49 2.49 0 0 1 1.658.63m-11.203 6.62h0a2.5 2.5 0 0 0 2.5-2.5v-2a2.5 2.5 0 0 0-2.5-2.5h0a2.5 2.5 0 0 0-2.5 2.5v2a2.5 2.5 0 0 0 2.5 2.5zm-2.5-2.97v-9M23.434 39.958h0c0 .99.852 1.792 1.903 1.792h1.523c1.052 0 1.904-.802 1.904-1.792h0c0-.99-.852-1.791-1.904-1.791h-1.523c-1.051 0-1.903.802-1.903 1.791z"/><path stroke-linecap="round" d="M23.837 35.52c.418-.562 1.162-.937 2.01-.937h.83c1.308 0 2.368.892 2.368 1.991h0v5.176"/></g></svg>
